svgs/sharp-regular/tv.svg

<svg xmlns="http://www.w3.org/2000/svg" viewBox="0 0 640 512"><!--! Font Awesome Pro 6.6.0 by @fontawesome - https://fontawesome.com License - https://fontawesome.com/license (Commercial License) Copyright 2024 Fonticons, Inc. --><path d="M48 48l0 320 544 0 0-320L48 48zM0 0L48 0 592 0l48 0 0 48 0 320 0 48-48 0L48 416 0 416l0-48L0 48 0 0zM120 464l400 0 24 0 0 48-24 0-400 0-24 0 0-48 24 0z"/></svg>

<svg xmlns="http://www.w3.org/2000/svg" viewBox="0 0 640 512"><!--! Font Awesome Pro 6.4.2 by @fontawesome - https://fontawesome.com License - https://fontawesome.com/license (Commercial License) Copyright 2023 Fonticons, Inc. --><path d="M48 48V368H592V48H48zM0 0H48 592h48V48 368v48H592 48 0V368 48 0zM120 464H520h24v48H520 120 96V464h24z"/></svg>
